img/footer__tw.svg

<svg width="30" height="30" viewBox="0 0 30 30" fill="none" xmlns="http://www.w3.org/2000/svg">
<path d="M0 15C0 6.71573 6.71573 0 15 0C23.2843 0 30 6.71573 30 15C30 23.2843 23.2843 30 15 30C6.71573 30 0 23.2843 0 15Z" fill="#6B6868"/>
<path d="M23.1584 9.82078C22.5626 10.0958 21.8751 10.2791 21.2334 10.325C21.9209 9.86662 22.4251 9.27078 22.7001 8.49162C22.0126 8.85828 21.3709 9.17912 20.5459 9.31662C19.9501 8.62912 19.0792 8.26245 18.1167 8.26245C16.2834 8.26245 14.7709 9.72912 14.7709 11.6083C14.7709 11.8833 14.7709 12.1125 14.8626 12.3416C12.1126 12.2041 9.6834 10.875 7.94173 8.85828C7.66673 9.36245 7.4834 9.91245 7.4834 10.5541C7.4834 11.7458 8.07923 12.7083 8.95007 13.3041C8.4459 13.3041 7.8959 13.1666 7.4834 12.8458V12.9375C7.4834 14.5875 8.5834 15.9166 10.1417 16.1916C9.86673 16.2833 9.5459 16.3291 9.2709 16.3291C9.04173 16.3291 8.81257 16.3291 8.67507 16.2375C9.1334 17.5666 10.3251 18.5291 11.7917 18.5291C10.6917 19.4 9.17923 19.9499 7.6209 19.9499C7.3459 19.9499 7.11673 19.9499 6.7959 19.8583C8.26257 20.8208 10.0042 21.3249 11.9292 21.3249C18.0709 21.3249 21.4167 16.2833 21.4167 11.8375V11.3791C22.1959 11.0583 22.7001 10.4625 23.1584 9.82078Z" fill="white"/>
</svg>

<svg width="30" height="30" fill="none" xmlns="http://www.w3.org/2000/svg"><path d="M0 15C0 6.716 6.716 0 15 0c8.284 0 15 6.716 15 15 0 8.284-6.716 15-15 15-8.284 0-15-6.716-15-15z" fill="#6B6868"/><path d="M23.158 9.82a5.702 5.702 0 01-1.925.505c.688-.458 1.192-1.054 1.467-1.833-.687.366-1.33.687-2.154.825-.596-.688-1.467-1.055-2.43-1.055a3.335 3.335 0 00-3.345 3.346c0 .275 0 .505.092.734-2.75-.138-5.18-1.467-6.921-3.484-.275.504-.459 1.054-.459 1.696 0 1.192.596 2.154 1.467 2.75-.504 0-1.054-.137-1.467-.458v.091c0 1.65 1.1 2.98 2.659 3.255a2.877 2.877 0 01-.871.137c-.23 0-.458 0-.596-.091.458 1.329 1.65 2.291 3.117 2.291-1.1.871-2.613 1.42-4.171 1.42-.275 0-.504 0-.825-.09 1.467.962 3.208 1.466 5.133 1.466 6.142 0 9.488-5.042 9.488-9.487v-.459c.779-.32 1.283-.916 1.741-1.558z" fill="#fff"/></svg>
